X:86
T:Repeal Of The Union
R:Reel
S:Seamus Quinn, Fermanagh (fiddle)
D:Session tape - Buncrana 1979
Z:Bernie Stocks
M:4/4
K:G
AD(3FED AD(3FED | E2cE dEcE | AD(3FED AD(3FED | EGcG EDD2 | AD(3FED AD(3FED |
E2cE dEcE | (3ABAGB ADED | (3EFGcG EDD2 :: Adde fdec | ABcA dBcB |
Adde fdec | cAGE EDD2 | ~d3e fdec | ABcd efge | afge dfed | ~c3d cAGE :|
<end>
<start>
